static/logos/welcome-wordmark-color.svg

<svg width="129" height="31" viewBox="0 0 129 31" fill="none" xmlns="http://www.w3.org/2000/svg">
<g clip-path="url(#clip0_1_426)">
<path fill-rule="evenodd" clip-rule="evenodd" d="M0.0546875 13.4015C0.0546875 6.04014 6.07557 0.0726318 13.5028 0.0726318C20.93 0.0726318 26.9508 6.04014 26.9508 13.4015V30.9273H0.0546875V13.4015ZM12.3067 29.043H17.6394V18.6662C17.6394 13.9056 14.059 10.1759 9.79761 10.1759C7.63647 10.1759 5.66704 11.1231 4.23607 12.6818C2.91909 14.1163 2.06608 16.0631 1.96573 18.2345C3.06389 17.2022 4.54767 16.5689 6.18068 16.5689C9.56397 16.5689 12.3067 19.2873 12.3067 22.6405V29.043ZM19.5405 29.043H25.0497V13.4015C25.0497 7.08078 19.88 1.95688 13.5028 1.95688C7.44837 1.95688 2.48233 6.5751 1.99502 12.4512C2.25178 12.0862 2.53077 11.7396 2.82997 11.4136C4.58851 9.49819 7.05442 8.29161 9.79761 8.29161C15.2479 8.29161 19.5405 13.0082 19.5405 18.6662V29.043ZM6.18068 18.4531C3.84735 18.4531 1.95578 20.3279 1.95578 22.6405V29.043H10.4056V22.6405C10.4056 20.3279 8.51401 18.4531 6.18068 18.4531Z" fill="black"/>
</g>
<path d="M69.1406 21.892H71.5462V8H69.1406V21.892Z" fill="black"/>
<path fill-rule="evenodd" clip-rule="evenodd" d="M64.5632 19.6096C63.9867 20.1409 63.0125 20.377 61.919 20.377C60.3086 20.377 59.0561 19.8654 58.5789 18.8029C58.4199 18.488 58.3403 18.1535 58.3006 17.7403H67.6448C67.6448 16.5793 67.4858 15.6742 67.1279 14.8084C66.3128 13.0178 64.4439 11.9355 61.7599 11.9355C59.1157 11.9355 57.1474 12.9391 56.3323 14.769C56.0341 15.438 55.875 16.1661 55.875 17.0713C55.875 17.9371 56.0142 18.6848 56.3323 19.3341C57.1474 21.1641 59.1555 22.1873 61.8991 22.1873C63.7083 22.1873 65.3187 21.7741 66.3923 20.8099C66.8554 20.3932 67.1898 19.9079 67.3953 19.3332H64.8247C64.7475 19.4329 64.66 19.5258 64.5632 19.6096ZM61.7599 13.7655C63.2908 13.7655 64.4837 14.2378 64.9807 15.32C65.0801 15.5561 65.1596 15.7726 65.1994 16.0481H58.3403C58.3801 15.8119 58.4596 15.5955 58.559 15.3791C59.0561 14.2771 60.1893 13.7655 61.7599 13.7655Z" fill="black"/>
<path d="M83.3604 20.7705C82.3068 21.6954 80.7759 22.1873 78.907 22.1873C76.3622 22.1873 74.3939 21.2231 73.5589 19.3735C73.2607 18.7045 73.1016 17.9371 73.1016 17.0516C73.1016 16.1858 73.2607 15.3987 73.5589 14.7494C74.3939 12.9391 76.3225 11.9355 78.907 11.9355C80.7759 11.9355 82.2869 12.4078 83.3406 13.372C84.116 14.041 84.5335 14.9265 84.5931 15.989H82.0284C81.9688 15.4184 81.7302 14.9658 81.3723 14.6313C80.8157 14.1394 79.921 13.9229 78.9269 13.9229C77.4756 13.9229 76.3821 14.4739 75.9049 15.4774C75.726 15.93 75.6266 16.4022 75.6266 17.0516C75.6266 17.6812 75.726 18.1732 75.9049 18.6061C76.3821 19.6096 77.4756 20.1606 78.9269 20.1606C79.921 20.1606 80.8355 19.9441 81.3723 19.4325C81.7699 19.098 82.0085 18.6257 82.0284 18.0748H84.6329C84.5533 19.157 84.1358 20.0622 83.3604 20.7705Z" fill="black"/>
<path fill-rule="evenodd" clip-rule="evenodd" d="M91.89 22.1676C94.6735 22.1676 96.5818 21.105 97.3971 19.3144C97.6952 18.6454 97.8542 17.8977 97.8542 17.0516C97.8542 16.2251 97.6952 15.4774 97.3971 14.8084C96.5818 13.0178 94.6735 11.9355 91.89 11.9355C89.1264 11.9355 87.2178 13.0178 86.3827 14.8477C86.0845 15.4971 85.9453 16.2448 85.9453 17.0516C85.9453 17.878 86.0845 18.6061 86.3827 19.2751C87.2178 21.0854 89.1264 22.1676 91.89 22.1676ZM91.89 20.1999C90.3789 20.1999 89.2258 19.6293 88.7287 18.5667C88.5498 18.1338 88.4504 17.6419 88.4504 17.0516C88.4504 16.481 88.5498 15.9693 88.7287 15.5561C89.2258 14.4936 90.3789 13.9229 91.89 13.9229C93.4011 13.9229 94.5739 14.4739 95.0707 15.5561C95.25 15.9693 95.3292 16.481 95.3292 17.0516C95.3292 17.6419 95.25 18.1338 95.0707 18.5667C94.5739 19.6293 93.4011 20.1999 91.89 20.1999Z" fill="black"/>
<path fill-rule="evenodd" clip-rule="evenodd" d="M123.271 20.377C124.365 20.377 125.339 20.1409 125.915 19.6096C126.012 19.5258 126.099 19.4329 126.177 19.3332H128.748C128.542 19.9079 128.207 20.3932 127.744 20.8099C126.671 21.7741 125.06 22.1873 123.251 22.1873C120.508 22.1873 118.5 21.1641 117.685 19.3341C117.366 18.6848 117.227 17.9371 117.227 17.0713C117.227 16.1661 117.387 15.438 117.685 14.769C118.5 12.9391 120.468 11.9355 123.112 11.9355C125.796 11.9355 127.665 13.0178 128.48 14.8084C128.838 15.6742 128.997 16.5793 128.997 17.7403H119.653C119.693 18.1535 119.772 18.488 119.931 18.8029C120.408 19.8654 121.661 20.377 123.271 20.377ZM126.333 15.32C125.836 14.2378 124.643 13.7655 123.112 13.7655C121.541 13.7655 120.408 14.2771 119.911 15.3791C119.812 15.5955 119.732 15.8119 119.693 16.0481H126.552C126.512 15.7726 126.432 15.5561 126.333 15.32Z" fill="black"/>
<path d="M104.076 11.9561C101.479 11.9561 99.375 14.0622 99.375 16.6603V21.8992H101.832V16.1391C101.832 14.8991 102.836 13.934 104.076 13.934C105.315 13.934 106.319 14.8991 106.319 16.1391V21.8992H108.776V16.1391C108.776 14.8991 109.781 13.934 111.02 13.934C112.259 13.934 113.263 14.8991 113.263 16.1391V21.8992H115.721V16.6603C115.721 14.0622 113.616 11.9561 111.02 11.9561C109.645 11.9561 108.407 12.5471 107.548 13.4891C106.688 12.5471 105.451 11.9561 104.076 11.9561Z" fill="black"/>
<path d="M50.3876 19.141L52.9241 12.2197H55.4999L51.6067 21.8742H49.1685L46.75 15.1102L44.3315 21.8742H41.8932L38 12.2197H40.5758L43.1123 19.1607L45.5309 12.2197H47.9494L50.3876 19.141Z" fill="black"/>
<defs>
<clipPath id="clip0_1_426">
<rect width="27" height="31" fill="white"/>
</clipPath>
</defs>
</svg>

<svg xmlns="http://www.w3.org/2000/svg" width="266.323" height="64" fill="none" viewBox="0 0 129 31"><g clip-path="url(#a)"><path fill="#000" fill-rule="evenodd" d="M.055 13.402C.055 6.04 6.075.072 13.503.072c7.427 0 13.448 5.968 13.448 13.33v17.525H.055V13.401Zm12.252 15.641h5.332V18.666c0-4.76-3.58-8.49-7.841-8.49-2.162 0-4.131.947-5.562 2.506-1.317 1.434-2.17 3.381-2.27 5.553a6.134 6.134 0 0 1 4.215-1.666c3.383 0 6.126 2.718 6.126 6.072v6.402Zm7.234 0h5.509V13.402c0-6.321-5.17-11.445-11.547-11.445-6.055 0-11.02 4.618-11.508 10.494.257-.365.536-.711.835-1.037 1.759-1.916 4.224-3.122 6.968-3.122 5.45 0 9.743 4.716 9.743 10.374v10.377ZM6.18 18.453c-2.334 0-4.225 1.875-4.225 4.188v6.402h8.45v-6.402c0-2.313-1.892-4.188-4.225-4.188Z" clip-rule="evenodd"/></g><path fill="#000" d="M69.14 21.892h2.406V8h-2.405v13.892Z"/><path fill="#000" fill-rule="evenodd" d="M64.563 19.61c-.576.53-1.55.767-2.644.767-1.61 0-2.863-.512-3.34-1.574-.16-.315-.239-.65-.278-1.063h9.344c0-1.16-.16-2.066-.517-2.932-.815-1.79-2.684-2.873-5.368-2.873-2.644 0-4.613 1.004-5.428 2.834-.298.669-.457 1.397-.457 2.302 0 .866.14 1.614.457 2.263.815 1.83 2.824 2.853 5.567 2.853 1.81 0 3.42-.413 4.493-1.377a3.575 3.575 0 0 0 1.003-1.477h-2.57c-.078.1-.165.193-.262.277Zm-2.803-5.845c1.53 0 2.724.473 3.22 1.555.1.236.18.453.22.728h-6.86c.04-.236.12-.452.219-.669.497-1.102 1.63-1.614 3.2-1.614Z" clip-rule="evenodd"/><path fill="#000" d="M83.36 20.77c-1.053.925-2.584 1.417-4.453 1.417-2.545 0-4.513-.964-5.348-2.814-.298-.669-.457-1.436-.457-2.321 0-.866.159-1.653.457-2.303.835-1.81 2.764-2.814 5.348-2.814 1.869 0 3.38.473 4.434 1.437.775.669 1.193 1.555 1.252 2.617h-2.565a2.108 2.108 0 0 0-.656-1.358c-.556-.492-1.451-.708-2.445-.708-1.451 0-2.545.55-3.022 1.554-.179.453-.278.925-.278 1.575 0 .63.099 1.121.278 1.554.477 1.004 1.57 1.555 3.022 1.555.994 0 1.908-.217 2.445-.729.398-.334.636-.806.656-1.357h2.605c-.08 1.082-.497 1.987-1.273 2.695Z"/><path fill="#000" fill-rule="evenodd" d="M91.89 22.168c2.784 0 4.692-1.063 5.507-2.854.298-.669.457-1.416.457-2.262 0-.827-.159-1.575-.457-2.244-.815-1.79-2.724-2.873-5.507-2.873-2.764 0-4.672 1.083-5.507 2.913-.298.65-.438 1.397-.438 2.204 0 .826.14 1.554.438 2.223.835 1.81 2.743 2.893 5.507 2.893Zm0-1.968c-1.511 0-2.664-.57-3.161-1.633-.18-.433-.279-.925-.279-1.515 0-.571.1-1.083.279-1.496.497-1.062 1.65-1.633 3.161-1.633 1.511 0 2.684.55 3.18 1.633.18.413.26.925.26 1.496 0 .59-.08 1.082-.26 1.515-.496 1.062-1.669 1.633-3.18 1.633ZM123.271 20.377c1.094 0 2.068-.236 2.644-.767a1.96 1.96 0 0 0 .262-.277h2.571a3.583 3.583 0 0 1-1.004 1.477c-1.073.964-2.684 1.377-4.493 1.377-2.743 0-4.751-1.023-5.566-2.853-.319-.65-.458-1.397-.458-2.263 0-.905.16-1.633.458-2.302.815-1.83 2.783-2.834 5.427-2.834 2.684 0 4.553 1.083 5.368 2.873.358.866.517 1.771.517 2.932h-9.344c.04.414.119.748.278 1.063.477 1.062 1.73 1.574 3.34 1.574Zm3.062-5.057c-.497-1.082-1.69-1.555-3.221-1.555-1.571 0-2.704.512-3.201 1.614a2.624 2.624 0 0 0-.218.67h6.859a2.852 2.852 0 0 0-.219-.729Z" clip-rule="evenodd"/><path fill="#000" d="M104.076 11.956a4.702 4.702 0 0 0-4.701 4.704v5.24h2.457v-5.76c0-1.24 1.004-2.206 2.244-2.206 1.239 0 2.243.965 2.243 2.205v5.76h2.457v-5.76c0-1.24 1.005-2.205 2.244-2.205 1.239 0 2.243.965 2.243 2.205v5.76h2.458V16.66a4.703 4.703 0 0 0-4.701-4.704 4.686 4.686 0 0 0-3.472 1.533 4.688 4.688 0 0 0-3.472-1.533ZM50.388 19.141l2.536-6.921H55.5l-3.893 9.654h-2.438L46.75 15.11l-2.419 6.764h-2.438L38 12.22h2.576l2.536 6.94 2.419-6.94h2.418l2.439 6.921Z"/><defs><clipPath id="a"><path fill="#fff" d="M0 0h27v31H0z"/></clipPath></defs></svg>
